packages/core/src/svgs/tokens/mono/MLK.svg

<svg width="24" height="24" viewBox="0 0 24 24" fill="none" xmlns="http://www.w3.org/2000/svg">
<path d="M19.9171 5.96157L13.4199 2.36561C12.9874 2.12581 12.5011 2 12.0065 2C11.5121 2 11.0258 2.12581 10.5933 2.36561L4.08968 5.96157C3.63618 6.21326 3.25798 6.58129 2.99401 7.02775C2.73005 7.47422 2.58985 7.98296 2.58789 8.50162V15.4982C2.58789 16.5547 3.16554 17.5229 4.08968 18.0376L10.5863 21.6342C11.0188 21.8741 11.5053 22 11.9998 22C12.4944 22 12.9808 21.8741 13.4134 21.6342L19.91 18.0376C20.3639 17.7867 20.7426 17.4189 21.0065 16.9724C21.2706 16.5259 21.4105 16.0169 21.4119 15.4982V8.50162C21.4112 7.98354 21.2723 7.47503 21.0096 7.02853C20.7467 6.58202 20.3697 6.2137 19.9171 5.96157ZM9.64682 15.5735C9.64682 16.5341 8.84684 17.2941 7.88211 17.2941C6.91738 17.2941 6.11736 16.5341 6.11736 15.5729V9.61579C6.11736 8.65398 6.91738 7.8822 7.88211 7.8822C8.84684 7.8822 9.64682 8.65398 9.64682 9.61579V15.5735ZM11.9998 12.5881C11.5323 12.5866 11.0843 12.4002 10.7537 12.0695C10.423 11.739 10.2366 11.291 10.2351 10.8234C10.2351 9.85517 11.028 9.05869 11.9998 9.05869C12.9716 9.05869 13.7645 9.85517 13.7645 10.8234C13.7645 11.7917 12.9716 12.5881 11.9998 12.5881ZM17.8823 15.5729C17.8823 16.5341 17.0823 17.2941 16.1176 17.2941C15.1529 17.2941 14.3528 16.5341 14.3528 15.5729V9.61579C14.3528 8.65398 15.1529 7.8822 16.1176 7.8822C17.0823 7.8822 17.8823 8.65398 17.8823 9.61579V15.5729Z" fill="white"/>
</svg>

<svg xmlns="http://www.w3.org/2000/svg" width="24" height="24" fill="none" viewBox="0 0 24 24">
    <path fill="#fff" d="M19.917 5.962 13.42 2.366a2.92 2.92 0 0 0-2.827 0L4.09 5.962a2.92 2.92 0 0 0-1.502 2.54v6.996a2.91 2.91 0 0 0 1.502 2.54l6.496 3.596a2.91 2.91 0 0 0 2.827 0l6.497-3.596a2.91 2.91 0 0 0 1.502-2.54V8.502a2.91 2.91 0 0 0-1.495-2.54m-10.27 9.612c0 .96-.8 1.72-1.765 1.72s-1.765-.76-1.765-1.721V9.616c0-.962.8-1.734 1.765-1.734s1.765.772 1.765 1.734zM12 12.587a1.77 1.77 0 0 1-1.765-1.765A1.77 1.77 0 0 1 12 9.06a1.77 1.77 0 0 1 1.765 1.764A1.77 1.77 0 0 1 12 12.588m5.882 2.985c0 .961-.8 1.721-1.764 1.721-.965 0-1.765-.76-1.765-1.721V9.616c0-.962.8-1.734 1.765-1.734s1.764.772 1.764 1.734z"/>
</svg>
